svgs/viseca_one.svg

<svg viewBox="0 0 192 192" xml:space="preserve" style="fill-rule:evenodd;clip-rule:evenodd;stroke-linejoin:round;stroke-miterlimit:2" xmlns="http://www.w3.org/2000/svg"><path d="M599.994 518.528c-.682-14.79-11.509-26.1-24.135-26.1-13.035 0-24.168 12.094-24.168 27.572s11.133 27.572 24.168 27.572c6.197 0 11.896-2.643 16.233-7.126a6.003 6.003 0 0 0-.141-8.484 6.003 6.003 0 0 0-8.484.141c-2.045 2.114-4.685 3.469-7.608 3.469-5.607 0-10.014-4.605-11.562-10.706 9.096.08 24.792.188 28.922.03 2.173-.083 3.399-.68 3.633-.807 2.882-1.564 3.217-3.358 3.142-4.987v-.574Zm-102.408-20.1v43.144c0 3.311 2.688 6 6 6 3.311 0 6-2.689 6-6v-27.016c.852-1.465 2.624-4.174 5.239-6.49 2.167-1.919 4.967-3.638 8.447-3.638 2.706 0 4.625.655 5.912 1.8 3.08 2.74 2.809 7.352 2.809 7.352a6.956 6.956 0 0 0-.003.205v27.787c0 3.311 2.688 6 6 6 3.311 0 6-2.689 6-6v-27.787l-.004.204s.244-10.436-6.825-16.726c-3.063-2.725-7.449-4.835-13.889-4.835-5.41 0-10.061 1.931-13.847 4.622a6 6 0 0 0-11.839 1.378Zm-33.418-6C451.132 492.428 440 504.522 440 520s11.132 27.572 24.168 27.572 24.168-12.094 24.168-27.572-11.132-27.572-24.168-27.572Zm0 12c7.026 0 12.168 7.23 12.168 15.572 0 8.342-5.142 15.572-12.168 15.572-7.026 0-12.168-7.23-12.168-15.572 0-8.342 5.142-15.572 12.168-15.572Zm122.557 8.551c-1.952-4.989-5.949-8.551-10.866-8.551-4.89 0-8.868 3.503-10.831 8.446 6.317.057 15.436.123 21.697.105Z" style="fill-rule:evenodd;clip-rule:evenodd;stroke-linejoin:round;stroke-miterlimit:2" transform="translate(-424 -424)"/></svg>

<?xml version="1.0" encoding="UTF-8" standalone="no"?>
<svg
   width="100%"
   height="100%"
   viewBox="0 0 192 192"
   version="1.1"
   xml:space="preserve"
   style="fill-rule:evenodd;clip-rule:evenodd;stroke-linejoin:round;stroke-miterlimit:2;"
   id="svg5253"
   sodipodi:docname="visea_one.svg"
   inkscape:version="1.2.1 (9c6d41e410, 2022-07-14)"
   xmlns:inkscape="http://www.inkscape.org/namespaces/inkscape"
   xmlns:sodipodi="http://sodipodi.sourceforge.net/DTD/sodipodi-0.dtd"
   xmlns="http://www.w3.org/2000/svg"
   xmlns:svg="http://www.w3.org/2000/svg"><defs
   id="defs5257" /><sodipodi:namedview
   id="namedview5255"
   pagecolor="#ffffff"
   bordercolor="#000000"
   borderopacity="0.25"
   inkscape:showpageshadow="2"
   inkscape:pageopacity="0.0"
   inkscape:pagecheckerboard="0"
   inkscape:deskcolor="#d1d1d1"
   showgrid="false"
   inkscape:zoom="3.3112552"
   inkscape:cx="56.776053"
   inkscape:cy="107.8141"
   inkscape:window-width="1274"
   inkscape:window-height="1303"
   inkscape:window-x="1282"
   inkscape:window-y="36"
   inkscape:window-maximized="0"
   inkscape:current-layer="svg5253" />
    <path
   d="M599.994,518.528C599.312,503.738 588.485,492.428 575.859,492.428C562.824,492.428 551.691,504.522 551.691,520C551.691,535.478 562.824,547.572 575.859,547.572C582.056,547.572 587.755,544.929 592.092,540.446C594.394,538.066 594.331,534.265 591.951,531.962C589.571,529.66 585.77,529.723 583.467,532.103C581.422,534.217 578.782,535.572 575.859,535.572C570.252,535.572 565.845,530.967 564.297,524.866C573.393,524.946 589.089,525.054 593.219,524.896C595.392,524.813 596.618,524.216 596.852,524.089C599.734,522.525 600.069,520.731 599.994,519.102L599.994,518.528ZM497.586,498.428L497.586,541.572C497.586,544.883 500.274,547.572 503.586,547.572C506.897,547.572 509.586,544.883 509.586,541.572L509.586,514.556C510.438,513.091 512.21,510.382 514.825,508.066C516.992,506.147 519.792,504.428 523.272,504.428C525.978,504.428 527.897,505.083 529.184,506.228C532.264,508.968 531.993,513.58 531.993,513.58C531.991,513.648 531.99,513.716 531.99,513.785L531.99,541.572C531.99,544.883 534.678,547.572 537.99,547.572C541.301,547.572 543.99,544.883 543.99,541.572L543.99,513.785L543.986,513.989C543.986,513.989 544.23,503.553 537.161,497.263C534.098,494.538 529.712,492.428 523.272,492.428C517.862,492.428 513.211,494.359 509.425,497.05C508.803,494.4 506.425,492.428 503.586,492.428C500.272,492.428 497.586,495.115 497.586,498.428ZM464.168,492.428C451.132,492.428 440,504.522 440,520C440,535.478 451.132,547.572 464.168,547.572C477.204,547.572 488.336,535.478 488.336,520C488.336,504.522 477.204,492.428 464.168,492.428ZM464.168,504.428C471.194,504.428 476.336,511.658 476.336,520C476.336,528.342 471.194,535.572 464.168,535.572C457.142,535.572 452,528.342 452,520C452,511.658 457.142,504.428 464.168,504.428ZM586.725,512.979C584.773,507.99 580.776,504.428 575.859,504.428C570.969,504.428 566.991,507.931 565.028,512.874C571.345,512.931 580.464,512.997 586.725,512.979Z"
   id="path5247"
   style="fill-rule:evenodd;clip-rule:evenodd;stroke-linejoin:round;stroke-miterlimit:2"
   transform="translate(-424,-424)"
   inkscape:label="visea_one" />
</svg>
